images/traning-2.svg

<svg width="50" height="35" viewBox="0 0 50 35" fill="none" xmlns="http://www.w3.org/2000/svg">
<path d="M0 0.35199H16.992V34H5.856V9.13599H0V0.35199Z" fill="#1D5C73"/>
<path d="M35.8959 0.0159912C44.6319 0.0159912 49.4799 6.11199 49.4799 17.152C49.4799 28.192 44.6319 34.288 35.8959 34.288C27.0639 34.288 22.2639 28.192 22.2639 17.152C22.2639 6.11199 27.0639 0.0159912 35.8959 0.0159912ZM35.8959 7.50399C33.4959 7.50399 32.7759 10.048 32.7759 17.152C32.7759 24.208 33.4959 26.8 35.8959 26.8C38.2479 26.8 38.9679 24.208 38.9679 17.152C38.9679 10.048 38.2479 7.50399 35.8959 7.50399Z" fill="#FF8901"/>
</svg>

<svg width="50" height="35" fill="none" xmlns="http://www.w3.org/2000/svg"><path d="M0 .352h16.992V34H5.856V9.136H0V.352z" fill="#1D5C73"/><path d="M35.896.016c8.736 0 13.584 6.096 13.584 17.136s-4.848 17.136-13.584 17.136c-8.832 0-13.632-6.096-13.632-17.136S27.064.016 35.896.016zm0 7.488c-2.4 0-3.12 2.544-3.12 9.648 0 7.056.72 9.648 3.12 9.648 2.352 0 3.072-2.592 3.072-9.648 0-7.104-.72-9.648-3.072-9.648z" fill="#FF8901"/></svg>
